FINK
CUT[DIE TROMMEL RUFT DROMMETE KLINGT]
REG[Europa, Mitteleuropa, Deutschland]
KEY[F0607A 16 Bb 4/4]
MEL[-5_  1_.-5-3_.-51_.-5-3_.-5  1_.-71_.23__1__
    3_.23_.45_.54_.3  2__2__2__0_
    -5_  1_.-5-3_.-51_.-5-3_.-5  1_.-71_.23__1__
    3_.23_.45_.54_.3  2__2__2__0__
    2_.32_.1-7_.-6-5_.-7  2_.12_.34__2__
    3_.23_.45_.51_.2  3__2_.21__0_ //] >>
FCT[Soldaten - Lied, Krieg, national]
